X: 17998
T: Hughie Travers'
R: jig
M: 6/8
K: Gmajor
B|:dBA B3|dBG A3|GB/c/d g3|edB A2d|
dBA B3|dBG A3|GB/c/d gfg|edB G2:|
A|:Bdd edd|gdd e2g|GBd g3|edB A3|
Bdd edd|gdd e2g|GBd gfg|edB G2a|
bag agf|gdd e2g|GBd g3|edB A2B|
dBA B3|dBG A3|GB/c/d gfg|edB G2||

